svg/Pictogram/pictogram-din-m018-read_operating_instructions.svg

<?xml version="1.0" encoding="UTF-8" standalone="no"?>
<!-- Created with Inkscape (http://www.inkscape.org/) --><svg height="574.01575" id="svg9534" inkscape:version="0.44" sodipodi:docbase="/export/henning/reference/Sicherheitskennzeichnung" sodipodi:docname="D-M018_Gebrauchsanweisung_beachten.svg" sodipodi:version="0.32" version="1.0" width="574.01562" xmlns="http://www.w3.org/2000/svg" xmlns:cc="http://web.resource.org/cc/" xmlns:dc="http://purl.org/dc/elements/1.1/" xmlns:inkscape="http://www.inkscape.org/namespaces/inkscape" xmlns:rdf="http://www.w3.org/1999/02/22-rdf-syntax-ns#" xmlns:sodipodi="http://sodipodi.sourceforge.net/DTD/sodipodi-0.dtd" xmlns:svg="http://www.w3.org/2000/svg">
  <metadata>
    <rdf:RDF xmlns:cc="http://web.resource.org/cc/" xmlns:dc="http://purl.org/dc/elements/1.1/" xmlns:rdf="http://www.w3.org/1999/02/22-rdf-syntax-ns#">
      <cc:Work rdf:about="">
        <dc:title></dc:title>
        <dc:description></dc:description>
        <dc:subject>
          <rdf:Bag>
            <rdf:li>unsorted</rdf:li>
          </rdf:Bag>
        </dc:subject>
        <dc:publisher>
          <cc:Agent rdf:about="http://www.openclipart.org/">
            <dc:title>Open Clip Art Library, Source: Wikimedia Commons, Source: Wikimedia Commons, Source: Wikimedia Commons</dc:title>
          </cc:Agent>
        </dc:publisher>
        <dc:creator>
          <cc:Agent>
            <dc:title></dc:title>
          </cc:Agent>
        </dc:creator>
        <dc:rights>
          <cc:Agent>
            <dc:title></dc:title>
          </cc:Agent>
        </dc:rights>
        <dc:date></dc:date>
        <dc:format>image/svg+xml</dc:format>
        <dc:type rdf:resource="http://purl.org/dc/dcmitype/StillImage"/>
        <cc:license rdf:resource="http://en.wikipedia.org/wiki/Public_domain"/>
        <dc:language>en</dc:language>
      </cc:Work>
    </rdf:RDF>
  </metadata>
  <defs id="defs9536"/>
  <sodipodi:namedview bordercolor="#666666" borderopacity="1.0" gridtolerance="10000" guidetolerance="10" id="base" inkscape:current-layer="layer1" inkscape:cx="287.00778" inkscape:cy="287.00782" inkscape:document-units="mm" inkscape:pageopacity="0.0" inkscape:pageshadow="2" inkscape:window-height="966" inkscape:window-width="1272" inkscape:window-x="0" inkscape:window-y="0" inkscape:zoom="1.3379424" objecttolerance="10" pagecolor="#ffffff"/>
  <g id="layer1" inkscape:groupmode="layer" inkscape:label="Layer 1" transform="translate(-967.2779,-842.4971)">
    <g id="g12375">
      <g id="g9604" inkscape:label="Layer 1" transform="translate(859.5513,600.6769)">
        <path d="M 287,8.65625 C 218.47033,8.65625 155.72478,33.60408 107.28125,74.90625 C 106.01001,75.990088 104.75137,77.08127 103.5,78.1875 C 102.99743,78.631858 102.49932,79.08329 102,79.53125 C 100.92898,80.491888 99.86847,81.46055 98.8125,82.4375 C 98.530911,82.698088 98.24926,82.957 97.96875,83.21875 C 96.719471,84.384088 95.47768,85.56203 94.25,86.75 C 92.842341,88.112128 91.4413,89.4836 90.0625,90.875 C 88.709681,92.240178 87.35581,93.60711 86.03125,95 C 84.657021,96.445748 83.31209,97.9313 81.96875,99.40625 C 81.815011,99.574998 81.65333,99.73712 81.5,99.90625 C 80.338641,101.18767 79.20026,102.47837 78.0625,103.78125 C 76.820141,105.20359 75.61998,106.64608 74.40625,108.09375 C 74.359051,108.15005 74.29716,108.19367 74.25,108.25 C 33.754341,156.6286 9.34375,218.98266 9.34375,287.03125 C 9.3437497,440.68667 133.72474,565.37498 287,565.375 C 355.68044,565.37499 418.53736,540.30203 467.03125,498.84375 L 467.0625,498.875 C 467.44887,498.54459 467.83421,498.20748 468.21875,497.875 C 468.37477,497.74008 468.53177,497.604 468.6875,497.46875 C 469.62775,496.65228 470.57084,495.82883 471.5,495 C 472.23365,494.34538 472.96086,493.69351 473.6875,493.03125 C 473.89517,492.84203 474.10539,492.65858 474.3125,492.46875 C 475.28025,491.58137 476.23241,490.6821 477.1875,489.78125 C 478.04627,488.97153 478.90156,488.16423 479.75,487.34375 C 479.86644,487.23113 479.97749,487.11282 480.09375,487 C 481.18075,485.94478 482.24276,484.88524 483.3125,483.8125 C 483.6245,483.49976 483.93947,483.18921 484.25,482.875 C 485.50209,481.60739 486.74094,480.32264 487.96875,479.03125 C 488.09043,478.90331 488.2223,478.78441 488.34375,478.65625 C 489.75116,477.17032 491.15642,475.67297 492.53125,474.15625 C 493.79229,472.76566 495.01686,471.35354 496.25,469.9375 C 496.47793,469.67568 496.71052,469.41892 496.9375,469.15625 C 497.99135,467.93694 499.02955,466.70644 500.0625,465.46875 C 540.39176,417.14577 564.6875,354.91762 564.6875,287.03125 C 564.68752,133.37581 440.27528,8.65624 287,8.65625 z " id="path1979" style="fill:blue;fill-opacity:1;stroke:blue;stroke-width:1;stroke-miterlimit:4;stroke-dasharray:none;stroke-dashoffset:0;stroke-opacity:1" transform="translate(107.7266,241.8202)"/>
        <path d="M 55.097488 -177.1441 A 165.9812 120.52577 0 1 1  -276.86491,-177.1441 A 165.9812 120.52577 0 1 1  55.097488 -177.1441 z" id="path1870" sodipodi:cx="-110.88371" sodipodi:cy="-177.1441" sodipodi:rx="165.9812" sodipodi:ry="120.52577" sodipodi:type="arc" style="fill:none;fill-opacity:1;stroke:black;stroke-width:0.43721506;stroke-linecap:square;stroke-miterlimit:4;stroke-dasharray:none;stroke-dashoffset:0;stroke-opacity:1" transform="matrix(1.72649,0,0,2.377624,586.174,950.0102)"/>
      </g>
      <g id="g12362">
        <g id="g10542" style="stroke:white" transform="translate(867.7431,628.2038)">
          <path d="M 388.19094,333.94412 C 494.38711,284.38591 516.67978,362.64329 588.3268,358.67863" id="path9651" sodipodi:nodetypes="cc" style="fill:none;fill-rule:evenodd;stroke:white;stroke-width:14.17322826;stroke-linecap:butt;stroke-linejoin:miter;stroke-miterlimit:4;stroke-dasharray:none;stroke-opacity:1"/>
          <path d="M 388.52358,334.09535 C 282.32741,284.53714 256.40529,362.64329 184.75827,358.67863" id="path10538" sodipodi:nodetypes="cc" style="fill:none;fill-rule:evenodd;stroke:white;stroke-width:14.17322826;stroke-linecap:butt;stroke-linejoin:miter;stroke-miterlimit:4;stroke-dasharray:none;stroke-opacity:1"/>
        </g>
        <g id="g10546" style="stroke:white" transform="translate(867.7431,904.2038)">
          <path d="M 386.08493,335.26038 C 492.2811,285.70217 516.67978,362.64329 588.3268,358.67863" id="path10548" sodipodi:nodetypes="cc" style="fill:none;fill-rule:evenodd;stroke:white;stroke-width:14.17322826;stroke-linecap:butt;stroke-linejoin:miter;stroke-miterlimit:4;stroke-dasharray:none;stroke-opacity:1"/>
          <path d="M 391.94585,335.27998 C 285.74968,285.72177 256.40529,362.64329 184.75827,358.67863" id="path10550" sodipodi:nodetypes="cc" style="fill:none;fill-rule:evenodd;stroke:white;stroke-width:14.17322826;stroke-linecap:butt;stroke-linejoin:miter;stroke-miterlimit:4;stroke-dasharray:none;stroke-opacity:1"/>
        </g>
        <path d="M 1055.7558,979.79973 L 1055.7558,1269.9107" id="path10552" sodipodi:nodetypes="cc" style="fill:none;fill-rule:evenodd;stroke:white;stroke-width:14.17322826;stroke-linecap:butt;stroke-linejoin:miter;stroke-miterlimit:4;stroke-dasharray:none;stroke-opacity:1"/>
        <path d="M 1456.0699,979.79973 L 1456.0699,1269.9107" id="path11439" sodipodi:nodetypes="cc" style="fill:none;fill-rule:evenodd;stroke:white;stroke-width:14.17322826;stroke-linecap:butt;stroke-linejoin:miter;stroke-miterlimit:4;stroke-dasharray:none;stroke-opacity:1"/>
        <path d="M 1256.2857,958.15484 L 1256.2857,1237.0776" id="path11441" sodipodi:nodetypes="cc" style="fill:none;fill-rule:evenodd;stroke:white;stroke-width:14.17322826;stroke-linecap:butt;stroke-linejoin:miter;stroke-miterlimit:4;stroke-dasharray:none;stroke-opacity:1"/>
        <path d="M 500.73904 397.50876 A 17.163139 17.517019 0 1 1  466.41276,397.50876 A 17.163139 17.517019 0 1 1  500.73904 397.50876 z" id="path11443" sodipodi:cx="483.5759" sodipodi:cy="397.50876" sodipodi:rx="17.163139" sodipodi:ry="17.517019" sodipodi:type="arc" style="fill:white;fill-opacity:1;stroke:white;stroke-width:0.45167181;stroke-linecap:square;stroke-miterlimit:4;stroke-dasharray:none;stroke-dashoffset:0;stroke-opacity:1" transform="matrix(1.42656,0,0,1.397741,671.975,477.2864)"/>
        <path d="M 1318.9306,1076.1413 L 1318.9306,1089.2351 L 1340.8681,1089.2351 L 1340.8681,1162.1413 L 1318.9306,1162.1413 L 1318.9306,1176.2976 L 1409.5244,1176.2976 L 1409.5244,1162.1413 L 1388.3056,1162.1413 L 1388.3056,1089.2351 L 1388.3056,1083.9226 L 1388.3056,1076.1413 L 1318.9306,1076.1413 z " id="rect12330" style="fill:white;fill-opacity:1;stroke:white;stroke-width:0.63779527;stroke-linecap:square;stroke-miterlimit:4;stroke-dasharray:none;stroke-dashoffset:0;stroke-opacity:1"/>
      </g>
    </g>
  </g>
</svg>

<svg xmlns="http://www.w3.org/2000/svg" viewBox="0 0 574.02 574.02"><g transform="translate(-967.28-842.5)"><g transform="translate(859.55 600.68)"><path d="m287 8.656c-68.53 0-131.28 24.948-179.72 66.25-1.271 1.084-2.53 2.175-3.781 3.281-.503.444-1 .896-1.5 1.344-1.071.961-2.132 1.929-3.188 2.906-.282.261-.563.519-.844.781-1.249 1.165-2.491 2.343-3.719 3.531-1.408 1.362-2.809 2.734-4.188 4.125-1.353 1.365-2.707 2.732-4.03 4.125-1.374 1.446-2.719 2.931-4.063 4.406-.154.169-.315.331-.469.5-1.161 1.281-2.3 2.572-3.438 3.875-1.242 1.422-2.443 2.865-3.656 4.313-.047.056-.109.1-.156.156-40.496 48.38-64.906 110.73-64.906 178.78 0 153.66 124.38 278.34 277.66 278.34 68.68 0 131.54-25.07 180.03-66.53l.031.031c.386-.33.772-.668 1.156-1 .156-.135.313-.271.469-.406.94-.816 1.883-1.64 2.813-2.469.734-.655 1.461-1.306 2.188-1.969.208-.189.418-.373.625-.563.968-.887 1.92-1.787 2.875-2.688.859-.81 1.714-1.617 2.563-2.438.116-.113.227-.231.344-.344 1.087-1.055 2.149-2.115 3.219-3.188.312-.313.627-.623.938-.938 1.252-1.268 2.491-2.552 3.719-3.844.122-.128.254-.247.375-.375 1.407-1.486 2.813-2.983 4.188-4.5 1.261-1.391 2.486-2.803 3.719-4.219.228-.262.461-.519.688-.781 1.054-1.219 2.092-2.45 3.125-3.688 40.33-48.32 64.62-110.55 64.62-178.44 0-153.66-124.41-278.38-277.69-278.37z" transform="translate(107.73 241.82)" fill="#00f" stroke="#00f"/><path d="M55.09749-177.1441A165.9812 120.52577 0 1 1 -276.86491 -177.1441 165.9812 120.52577 0 1 1 55.09749 -177.1441z" transform="matrix(1.72649 0 0 2.37762 586.17 950.01)" fill="none" stroke="#000" stroke-linecap="square" stroke-width=".437"/></g><g stroke="#fff"><g fill="none" fill-rule="evenodd" stroke-width="14.173"><g transform="translate(867.74 628.2)"><path d="m388.19 333.94c106.2-49.558 128.49 28.699 200.14 24.735"/><path d="m388.52 334.1c-106.2-49.558-132.12 28.548-203.77 24.583"/></g><g transform="translate(867.74 904.2)"><path d="m386.08 335.26c106.2-49.558 130.59 27.383 202.24 23.418"/><path d="m391.95 335.28c-106.2-49.558-135.54 27.363-207.19 23.399"/></g><path d="m1055.76 979.8v290.11"/><path d="m1456.07 979.8v290.11"/><path d="m1256.29 958.15v278.92"/></g><g fill="#fff" stroke-linecap="square"><path d="M500.73904 397.50876A17.16314 17.517019 0 1 1 466.41276 397.50876 17.16314 17.517019 0 1 1 500.73904 397.50876z" transform="matrix(1.42656 0 0 1.39774 671.98 477.29)" stroke-width=".452"/><path d="m1318.93 1076.14v13.09h21.938v72.906h-21.938v14.156h90.59v-14.156h-21.22v-72.906-5.313-7.781h-69.37z" stroke-width=".638"/></g></g></g></svg>
